images/icon/exit.svg

<svg width="14" height="14" viewBox="0 0 14 14" fill="none" xmlns="http://www.w3.org/2000/svg">
<path fill-rule="evenodd" clip-rule="evenodd" d="M8 0.666667C8 0.298477 8.29848 0 8.66667 0H11.3333C11.8638 0 12.3725 0.210714 12.7475 0.585786C13.1226 0.960859 13.3333 1.46957 13.3333 2V11.3333C13.3333 11.8638 13.1226 12.3725 12.7475 12.7475C12.3725 13.1226 11.8638 13.3333 11.3333 13.3333H8.66667C8.29848 13.3333 8 13.0349 8 12.6667C8 12.2985 8.29848 12 8.66667 12H11.3333C11.5101 12 11.6797 11.9298 11.8047 11.8047C11.9298 11.6797 12 11.5101 12 11.3333V2C12 1.82319 11.9298 1.65362 11.8047 1.5286C11.6797 1.40357 11.5101 1.33333 11.3333 1.33333H8.66667C8.29848 1.33333 8 1.03486 8 0.666667ZM4.86189 2.86193C5.12224 2.60158 5.54435 2.60158 5.8047 2.86193L9.1338 6.19103C9.15092 6.20785 9.16714 6.22559 9.18238 6.24416C9.21424 6.28296 9.24106 6.32451 9.26283 6.36795C9.30794 6.45781 9.33333 6.55927 9.33333 6.66667C9.33333 6.77529 9.30735 6.87785 9.26127 6.96846C9.24098 7.00841 9.21641 7.04675 9.18756 7.08278C9.17076 7.10378 9.15271 7.12375 9.13354 7.14256L5.8047 10.4714C5.54435 10.7318 5.12224 10.7318 4.86189 10.4714C4.60154 10.2111 4.60154 9.78894 4.86189 9.52859L7.05715 7.33333H0.666667C0.298477 7.33333 0 7.03486 0 6.66667C0 6.29848 0.298477 6 0.666667 6H7.05715L4.86189 3.80474C4.60154 3.54439 4.60154 3.12228 4.86189 2.86193Z" fill="#2D3440"/>
</svg>

<svg width="14" height="14" fill="none" xmlns="http://www.w3.org/2000/svg"><path fill-rule="evenodd" clip-rule="evenodd" d="M8 .67C8 .3 8.3 0 8.67 0h2.66a2 2 0 0 1 2 2v9.33a2 2 0 0 1-2 2H8.67a.67.67 0 1 1 0-1.33h2.66a.67.67 0 0 0 .67-.67V2a.67.67 0 0 0-.67-.67H8.67A.67.67 0 0 1 8 .67Zm-3.14 2.2a.67.67 0 0 1 .94 0l3.33 3.32a.67.67 0 0 1 .2.48.66.66 0 0 1-.2.47L5.8 10.47a.67.67 0 1 1-.94-.94l2.2-2.2H.66A.67.67 0 1 1 .67 6h6.4l-2.2-2.2a.67.67 0 0 1 0-.94Z" fill="#2D3440"/></svg>
